public/assets/icons/locationWhite.svg

<svg width="26" height="26" viewBox="0 0 26 26" fill="none" xmlns="http://www.w3.org/2000/svg">
<path d="M12.8849 0C7.03011 0.0159536 2.27 4.68096 2.27 10.4155C2.27 13.7787 6.21185 18.4083 6.66151 18.9252C7.53906 19.9346 7.6839 20.1593 7.96617 20.5971L7.97095 20.6046L7.98213 20.6219C8.36649 21.2181 8.95525 22.1315 11.3679 25.2112C11.7643 25.6998 12.3075 25.9693 12.8849 25.9832C13.4624 25.9693 14.0056 25.6997 14.402 25.2112C16.8131 22.1335 17.4026 21.2193 17.7871 20.623L17.799 20.6046L17.8047 20.5958C18.0864 20.1589 18.2317 19.9336 19.1085 18.9252C19.5581 18.4083 23.5 13.7787 23.5 10.4155C23.5 4.68096 18.7398 0.0159536 12.8849 0ZM17.8441 17.874C16.8859 18.9768 16.7111 19.2468 16.3942 19.7383C16.048 20.2753 15.468 21.173 13.0861 24.2138C13.0233 24.2914 12.9533 24.3141 12.8849 24.3342C12.8165 24.3142 12.7465 24.2915 12.6837 24.2138C10.302 21.173 9.72201 20.2753 9.37581 19.7383C9.05892 19.2468 8.88395 18.9769 7.92569 17.874C5.99977 15.6604 3.92783 12.3828 3.92783 10.4155C3.92783 5.57473 7.94341 1.6372 12.8849 1.62129C17.8263 1.6372 21.8419 5.57473 21.8419 10.4155C21.8419 12.3828 19.77 15.6604 17.8441 17.874ZM12.8849 6.27003C10.642 6.27003 8.49997 8.25709 8.49997 10.5C8.49997 12.7431 10.642 14.8432 12.8849 14.8432C15.128 14.8432 17.3742 12.7431 17.3742 10.5C17.3742 8.25703 15.128 6.27003 12.8849 6.27003ZM12.8849 12.9953C11.539 12.9953 10.4482 11.9042 10.4482 10.5584C10.4482 9.21273 11.539 8.12164 12.8849 8.12164C14.2308 8.12164 15.3218 9.21273 15.3218 10.5584C15.3218 11.9042 14.2308 12.9953 12.8849 12.9953Z" fill="white"/>
<path d="M12.8849 0C7.03011 0.0159536 2.27 4.68096 2.27 10.4155C2.27 13.7787 6.21185 18.4083 6.66151 18.9252C7.53906 19.9346 7.6839 20.1593 7.96617 20.5971L7.97095 20.6046L7.98213 20.6219C8.36649 21.2181 8.95525 22.1315 11.3679 25.2112C11.7643 25.6998 12.3075 25.9693 12.8849 25.9832C13.4624 25.9693 14.0056 25.6997 14.402 25.2112C16.8131 22.1335 17.4026 21.2193 17.7871 20.623L17.799 20.6046L17.8047 20.5958C18.0864 20.1589 18.2317 19.9336 19.1085 18.9252C19.5581 18.4083 23.5 13.7787 23.5 10.4155C23.5 4.68096 18.7398 0.0159536 12.8849 0ZM17.8441 17.874C16.8859 18.9768 16.7111 19.2468 16.3942 19.7383C16.048 20.2753 15.468 21.173 13.0861 24.2138C13.0233 24.2914 12.9533 24.3141 12.8849 24.3342C12.8165 24.3142 12.7465 24.2915 12.6837 24.2138C10.302 21.173 9.72201 20.2753 9.37581 19.7383C9.05892 19.2468 8.88395 18.9769 7.92569 17.874C5.99977 15.6604 3.92783 12.3828 3.92783 10.4155C3.92783 5.57473 7.94341 1.6372 12.8849 1.62129C17.8263 1.6372 21.8419 5.57473 21.8419 10.4155C21.8419 12.3828 19.77 15.6604 17.8441 17.874ZM12.8849 6.27003C10.642 6.27003 8.49997 8.25709 8.49997 10.5C8.49997 12.7431 10.642 14.8432 12.8849 14.8432C15.128 14.8432 17.3742 12.7431 17.3742 10.5C17.3742 8.25703 15.128 6.27003 12.8849 6.27003ZM12.8849 12.9953C11.539 12.9953 10.4482 11.9042 10.4482 10.5584C10.4482 9.21273 11.539 8.12164 12.8849 8.12164C14.2308 8.12164 15.3218 9.21273 15.3218 10.5584C15.3218 11.9042 14.2308 12.9953 12.8849 12.9953Z" stroke="white"/>
</svg>

<svg xmlns="http://www.w3.org/2000/svg" width="26" height="26" fill="none"><path fill="#fff" d="M12.885 0C7.03.016 2.27 4.681 2.27 10.416c0 3.363 3.942 7.992 4.392 8.51.877 1.009 1.022 1.233 1.304 1.671l.005.008.011.017c.384.596.973 1.51 3.386 4.59.396.488.94.757 1.517.771.577-.014 1.12-.283 1.517-.772 2.411-3.077 3-3.992 3.385-4.588l.012-.018.006-.01c.281-.436.427-.661 1.303-1.67.45-.517 4.392-5.146 4.392-8.51C23.5 4.682 18.74.017 12.885 0m4.96 17.874c-.96 1.103-1.134 1.373-1.45 1.864-.347.537-.927 1.435-3.309 4.476a.36.36 0 0 1-.201.12.36.36 0 0 1-.201-.12c-2.382-3.041-2.962-3.939-3.308-4.476-.317-.491-.492-.761-1.45-1.864C6 15.66 3.928 12.383 3.928 10.416c0-4.841 4.015-8.779 8.957-8.795 4.941.016 8.957 3.954 8.957 8.795 0 1.967-2.072 5.244-3.998 7.458M12.884 6.27C10.642 6.27 8.5 8.257 8.5 10.5s2.142 4.343 4.385 4.343 4.49-2.1 4.49-4.343-2.247-4.23-4.49-4.23m0 6.725a2.437 2.437 0 1 1 0-4.873 2.437 2.437 0 0 1 0 4.873"/><path stroke="#fff" d="M12.885 0C7.03.016 2.27 4.681 2.27 10.416c0 3.363 3.942 7.992 4.392 8.51.877 1.009 1.022 1.233 1.304 1.671l.005.008.011.017c.384.596.973 1.51 3.386 4.59.396.488.94.757 1.517.771.577-.014 1.12-.283 1.517-.772 2.411-3.077 3-3.992 3.385-4.588l.012-.018.006-.01c.281-.436.427-.661 1.303-1.67.45-.517 4.392-5.146 4.392-8.51C23.5 4.682 18.74.017 12.885 0Zm4.96 17.874c-.96 1.103-1.134 1.373-1.45 1.864-.347.537-.927 1.435-3.309 4.476a.36.36 0 0 1-.201.12.36.36 0 0 1-.201-.12c-2.382-3.041-2.962-3.939-3.308-4.476-.317-.491-.492-.761-1.45-1.864C6 15.66 3.928 12.383 3.928 10.416c0-4.841 4.015-8.779 8.957-8.795 4.941.016 8.957 3.954 8.957 8.795 0 1.967-2.072 5.244-3.998 7.458ZM12.884 6.27C10.642 6.27 8.5 8.257 8.5 10.5s2.142 4.343 4.385 4.343 4.49-2.1 4.49-4.343-2.247-4.23-4.49-4.23Zm0 6.725a2.437 2.437 0 1 1 0-4.873 2.437 2.437 0 0 1 0 4.873Z"/></svg>
